Origami/16x16/apps/bandcamp.svg

<svg width="16" height="16" version="1" xmlns="http://www.w3.org/2000/svg">
 <path d="m2 3c-1.1045238 1.104e-4 -1.9998896 0.8954762-2 2v7c1.1043581e-4 1.104524 0.89547625 1.99989 2 2h1.0039062c0.3106638-5.33e-4 0.616933-0.073422 0.8945313-0.212891 0.2231878 0.03393 0.403028 0.212793 0.6308594 0.212891 1.3064114 0 2.4696933-0.592566 3.2988281-1.498047 0.9865081 0.910451 2.2804 1.498047 3.712891 1.498047h2e-3c1.437942-0.0017 2.820193-0.564008 3.849609-1.568359 1.2835-1.252673 0.396947-3.4311667-1.396531-3.431641h-2.445313c-0.0033-8e-6 -0.0065-8e-6 -0.0098 0-0.0072-6.886e-4 -0.01432-0.00134-0.02149-0.00195-0.29775-0.0118273-0.486527-0.2152127-0.488241-0.49805 0.0017-0.2828366 0.190491-0.4862227 0.488281-0.4980469 0.0072-6.124e-4 0.01433-0.00126 0.02149-0.00195h2.458979c1.793454-5.199e-4 2.679967-2.1789869 1.396484-3.4316437-1.030936-1.0058328-2.415403-1.5682487-3.855468-1.5683594-2.0018852 2e-7 -3.6993269 1.1451399-4.666016 2.7617188-0.5627981-0.3559932-1.1832785-0.5868156-1.8710938-0.6640626v-0.0976562c-1.104e-4 -1.1045238-0.8954762-1.9998896-2-2z" style="fill:#4f4f4f"/>
 <rect x="4.8" y="-11.21" width="22.4" height="22.4" style="fill:none"/>
 <path d="m2 5v7h1.0042497v-0.515625a2.5106242 2.4999999 0 0 0 1.5259888 0.515625 2.5106242 2.4999999 0 0 0 2.5106244 -2.5 2.5106242 2.4999999 0 0 0 -2.5106244 -2.5 2.5106242 2.4999999 0 0 0 -1.5259888 0.5195312v-2.5195312zm9.540372 0a3.5148739 3.4999998 0 0 0 -3.5148736 3.5 3.5148739 3.4999998 0 0 0 3.5148736 3.5 3.5148739 3.4999998 0 0 0 2.455704 -1h-2.555736v-0.0039a2.5106246 2.5000003 0 0 1 -2.4105919 -2.4961 2.5106246 2.5000003 0 0 1 2.4105919 -2.4960938v-0.0039062h2.55966a3.5148739 3.4999998 0 0 0 -2.459628 -1zm-7.0297477 3a1.5063746 1.5 0 0 1 1.5063746 1.5 1.5063746 1.5 0 0 1 -1.5063746 1.5 1.5063746 1.5 0 0 1 -1.5063746 -1.5 1.5063746 1.5 0 0 1 1.5063746 -1.5z" style="fill:#74bed2"/>
</svg>

<svg xmlns="http://www.w3.org/2000/svg" width="16" height="16" version="1">
 <path style="fill:#4f4f4f" d="M 2,3 C 0.89547625,3.0001104 1.1043581e-4,3.8954762 0,5 v 7 c 1.1043581e-4,1.104524 0.89547625,1.99989 2,2 H 3.0039062 C 3.31457,13.999467 3.6208392,13.926578 3.8984375,13.787109 4.1216253,13.821039 4.3014655,13.999902 4.5292969,14 5.8357083,14 6.9989902,13.407434 7.828125,12.501953 8.8146331,13.412404 10.108525,14 11.541016,14 h 0.002 c 1.437942,-0.0017 2.820193,-0.564008 3.849609,-1.568359 C 16.676125,11.178968 15.789572,9.0004743 13.996094,9 h -2.445313 c -0.0033,-8e-6 -0.0065,-8e-6 -0.0098,0 -0.0072,-6.886e-4 -0.01432,-0.00134 -0.02149,-0.00195 C 11.221741,8.9862227 11.032964,8.7828373 11.03125,8.5 c 0.0017,-0.2828366 0.190491,-0.4862227 0.488281,-0.4980469 0.0072,-6.124e-4 0.01433,-0.00126 0.02149,-0.00195 H 14 C 15.793454,7.9994832 16.679967,5.8210162 15.396484,4.5683594 14.365548,3.5625266 12.981081,3.0001107 11.541016,3 9.5391308,3.0000002 7.8416891,4.1451399 6.875,5.7617188 6.3122019,5.4057256 5.6917215,5.1749032 5.0039062,5.0976562 V 5 c -1.104e-4,-1.1045238 -0.8954762,-1.9998896 -2,-2 z"/>
 <rect style="fill:none" width="22.4" height="22.4" x="4.8" y="-11.21"/>
 <path style="fill:#74bed2" d="m 2,5 v 7 H 3.0042497 V 11.484375 A 2.5106242,2.4999999 0 0 0 4.5302385,12 2.5106242,2.4999999 0 0 0 7.0408629,9.5 2.5106242,2.4999999 0 0 0 4.5302385,7 2.5106242,2.4999999 0 0 0 3.0042497,7.5195312 V 5 Z m 9.540372,0 A 3.5148739,3.4999998 0 0 0 8.0254984,8.5 3.5148739,3.4999998 0 0 0 11.540372,12 3.5148739,3.4999998 0 0 0 13.996076,11 H 11.540372 11.44034 V 10.9961 A 2.5106246,2.5000003 0 0 1 9.0297481,8.5 2.5106246,2.5000003 0 0 1 11.44034,6.0039062 V 6 H 11.540372 14 A 3.5148739,3.4999998 0 0 0 11.540372,5 Z M 4.5106243,8 A 1.5063746,1.5 0 0 1 6.0169989,9.5 1.5063746,1.5 0 0 1 4.5106243,11 1.5063746,1.5 0 0 1 3.0042497,9.5 1.5063746,1.5 0 0 1 4.5106243,8 Z"/>
</svg>
